X:1
T:Holme's -- Hornpipe
R:hornpipe
B:Cole's 1000 Fiddle Tunes
M:2/4
L:1/16
K:Eb
uB,2|EDEF EB,G,B,|EeBG EFGE |AFcB AGFE|DBFD B,DFD|
EDEF EB,G,B,|EeBG EFGE|AFcA GFED|E2G2E2:|
|:uB2|.e2.e2 dB=AB|.f2(fe) dB=AB|afdB AFGE|DBFD B,2((3B,C"4"D)|
.E2.E2 CA,G,A,|.F2(FE) DB,=A,B,|eBAG FADF|E2G2E2:|
